gilbertguide/assets/images/item_9651.svg

<?xml version="1.0" standalone="no"?><!DOCTYPE svg PUBLIC "-//W3C//DTD SVG 1.1//EN" "http://www.w3.org/Graphics/SVG/1.1/DTD/svg11.dtd"><svg xmlns="http://www.w3.org/2000/svg" version="1.1" width="195.5px" height="54px" viewBox="0 0 195.5 54"><desc>Wildlife</desc><defs/><g id="Polygon11182"><path d="m42.8 30l-2.6-10.8l2.6 0c0 0 .86 4.45.9 4.4c.2 1.3.4 2.7.6 3.8c0 0 0 0 0 0c.2-1.1.5-2.4.7-3.8c.04.02 1-4.4 1-4.4l2.5 0c0 0 .91 4.56.9 4.6c.2 1.2.4 2.4.6 3.6c0 0 0 0 0 0c.2-1.2.4-2.5.6-3.8c.04.02.9-4.4.9-4.4l2.5 0l-2.8 10.8l-2.6 0c0 0-.94-4.64-.9-4.6c-.2-1.1-.4-2.1-.5-3.4c0 0-.1 0-.1 0c-.2 1.2-.3 2.3-.6 3.4c0-.04-1 4.6-1 4.6l-2.7 0zm12 0l0-7.8l2.4 0l0 7.8l-2.4 0zm2.5-10c0 .7-.5 1.2-1.3 1.2c-.8 0-1.3-.5-1.3-1.2c0-.7.5-1.2 1.3-1.2c.8 0 1.2.5 1.3 1.2zm1.8-1.4l2.5 0l0 11.4l-2.5 0l0-11.4zm12 0c0 0 .02 9.06 0 9.1c0 .8.1 1.8.1 2.3c-.02 0-2.2 0-2.2 0l-.1-1.1c0 0-.02-.04 0 0c-.5.8-1.5 1.3-2.5 1.3c-1.8 0-3.3-1.6-3.3-4c0-2.7 1.6-4.2 3.5-4.2c1 0 1.7.3 2.1.9c-.04-.04 0 0 0 0l0-4.3l2.4 0zm-2.4 6.9c0-.1 0-.3 0-.5c-.2-.6-.7-1.1-1.5-1.1c-1.1 0-1.6.9-1.6 2.2c0 1.3.6 2.1 1.6 2.1c.7 0 1.3-.4 1.4-1.1c.1-.2.1-.4.1-.6c0 0 0-1 0-1zm4.4-6.9l2.4 0l0 11.4l-2.4 0l0-11.4zm4.4 11.4l0-7.8l2.4 0l0 7.8l-2.4 0zm2.5-10c0 .7-.5 1.2-1.3 1.2c-.8 0-1.3-.5-1.3-1.2c0-.7.5-1.2 1.3-1.2c.8 0 1.3.5 1.3 1.2zm2.1 10l0-6l-1 0l0-1.8l1 0c0 0 .04-.33 0-.3c0-1 .3-2 1-2.7c.6-.5 1.5-.7 2.2-.7c.5 0 .9 0 1.3.1c0 0-.1 1.9-.1 1.9c-.2-.1-.5-.1-.8-.1c-.8 0-1.1.6-1.1 1.4c-.04-.02 0 .4 0 .4l1.5 0l0 1.8l-1.5 0l0 6l-2.5 0zm6.9-3.1c.1 1 1.1 1.5 2.2 1.5c.9 0 1.5-.2 2.2-.4c0 0 .3 1.7.3 1.7c-.8.3-1.8.5-2.8.5c-2.7 0-4.2-1.6-4.2-4c0-2 1.2-4.2 4-4.2c2.5 0 3.4 2 3.4 3.9c0 .4 0 .8 0 1c0 0-5.1 0-5.1 0zm2.9-1.7c0-.6-.3-1.6-1.4-1.6c-1 0-1.4 1-1.5 1.6c0 0 2.9 0 2.9 0z" stroke="none" fill="#fff"/></g></svg>

<?xml version="1.0" standalone="no"?><!DOCTYPE svg PUBLIC "-//W3C//DTD SVG 1.1//EN" "http://www.w3.org/Graphics/SVG/1.1/DTD/svg11.dtd"><svg xmlns="http://www.w3.org/2000/svg" version="1.1" width="219.4px" height="54px" viewBox="0 0 219.4 54">  <desc>Wildlife</desc>  <defs/>  <g id="Polygon11049">    <path d="M 42.8 30 L 40.2 19.2 L 42.8 19.2 C 42.8 19.2 43.66 23.65 43.7 23.6 C 43.9 24.9 44.1 26.3 44.3 27.4 C 44.3 27.4 44.3 27.4 44.3 27.4 C 44.5 26.3 44.8 25 45 23.6 C 45.04 23.62 46 19.2 46 19.2 L 48.5 19.2 C 48.5 19.2 49.41 23.76 49.4 23.8 C 49.6 25 49.8 26.2 50 27.4 C 50 27.4 50 27.4 50 27.4 C 50.2 26.2 50.4 24.9 50.6 23.6 C 50.64 23.62 51.5 19.2 51.5 19.2 L 54 19.2 L 51.2 30 L 48.6 30 C 48.6 30 47.66 25.36 47.7 25.4 C 47.5 24.3 47.3 23.3 47.2 22 C 47.2 22 47.1 22 47.1 22 C 46.9 23.2 46.8 24.3 46.5 25.4 C 46.5 25.36 45.5 30 45.5 30 L 42.8 30 Z M 54.8 30 L 54.8 22.2 L 57.2 22.2 L 57.2 30 L 54.8 30 Z M 57.3 20 C 57.3 20.7 56.8 21.2 56 21.2 C 55.2 21.2 54.7 20.7 54.7 20 C 54.7 19.3 55.2 18.8 56 18.8 C 56.8 18.8 57.2 19.3 57.3 20 Z M 59.1 18.6 L 61.6 18.6 L 61.6 30 L 59.1 30 L 59.1 18.6 Z M 71.1 18.6 C 71.1 18.6 71.12 27.66 71.1 27.7 C 71.1 28.5 71.2 29.5 71.2 30 C 71.18 30 69 30 69 30 L 68.9 28.9 C 68.9 28.9 68.88 28.86 68.9 28.9 C 68.4 29.7 67.4 30.2 66.4 30.2 C 64.6 30.2 63.1 28.6 63.1 26.2 C 63.1 23.5 64.7 22 66.6 22 C 67.6 22 68.3 22.3 68.7 22.9 C 68.66 22.86 68.7 22.9 68.7 22.9 L 68.7 18.6 L 71.1 18.6 Z M 68.7 25.5 C 68.7 25.4 68.7 25.2 68.7 25 C 68.5 24.4 68 23.9 67.2 23.9 C 66.1 23.9 65.6 24.8 65.6 26.1 C 65.6 27.4 66.2 28.2 67.2 28.2 C 67.9 28.2 68.5 27.8 68.6 27.1 C 68.7 26.9 68.7 26.7 68.7 26.5 C 68.7 26.5 68.7 25.5 68.7 25.5 Z M 73.1 18.6 L 75.5 18.6 L 75.5 30 L 73.1 30 L 73.1 18.6 Z M 77.5 30 L 77.5 22.2 L 79.9 22.2 L 79.9 30 L 77.5 30 Z M 80 20 C 80 20.7 79.5 21.2 78.7 21.2 C 77.9 21.2 77.4 20.7 77.4 20 C 77.4 19.3 77.9 18.8 78.7 18.8 C 79.5 18.8 80 19.3 80 20 Z M 82.1 30 L 82.1 24 L 81.1 24 L 81.1 22.2 L 82.1 22.2 C 82.1 22.2 82.14 21.87 82.1 21.9 C 82.1 20.9 82.4 19.9 83.1 19.2 C 83.7 18.7 84.6 18.5 85.3 18.5 C 85.8 18.5 86.2 18.5 86.6 18.6 C 86.6 18.6 86.5 20.5 86.5 20.5 C 86.3 20.4 86 20.4 85.7 20.4 C 84.9 20.4 84.6 21 84.6 21.8 C 84.56 21.78 84.6 22.2 84.6 22.2 L 86.1 22.2 L 86.1 24 L 84.6 24 L 84.6 30 L 82.1 30 Z M 89 26.9 C 89.1 27.9 90.1 28.4 91.2 28.4 C 92.1 28.4 92.7 28.2 93.4 28 C 93.4 28 93.7 29.7 93.7 29.7 C 92.9 30 91.9 30.2 90.9 30.2 C 88.2 30.2 86.7 28.6 86.7 26.2 C 86.7 24.2 87.9 22 90.7 22 C 93.2 22 94.1 24 94.1 25.9 C 94.1 26.3 94.1 26.7 94.1 26.9 C 94.1 26.9 89 26.9 89 26.9 Z M 91.9 25.2 C 91.9 24.6 91.6 23.6 90.5 23.6 C 89.5 23.6 89.1 24.6 89 25.2 C 89 25.2 91.9 25.2 91.9 25.2 Z " stroke="none" fill="#fff"/>  </g></svg>
